X: 15686
T: Golden Capybara
R: jig
M: 6/8
K: Dmajor
D2A FED|EDB, DFE|D2A FED|~E3 AFE|
D2A FED|EDB, DEF|{A}~B3 dBA|FED FED:|
~B3 dBA|FAB dBA|e2e fee|gfe def|
~B3 dBA|FAB dBA|f2f gfe|dfe dBA:|

